public/mouth-shapes/mouth-G.svg

<?xml version="1.0" encoding="UTF-8" standalone="no"?>
<svg
   xmlns:dc="http://purl.org/dc/elements/1.1/"
   xmlns:cc="http://creativecommons.org/ns#"
   xmlns:rdf="http://www.w3.org/1999/02/22-rdf-syntax-ns#"
   xmlns:svg="http://www.w3.org/2000/svg"
   xmlns="http://www.w3.org/2000/svg"
   xmlns:sodipodi="http://sodipodi.sourceforge.net/DTD/sodipodi-0.dtd"
   xmlns:inkscape="http://www.inkscape.org/namespaces/inkscape"
   inkscape:version="1.0beta1 (32d4812, 2019-09-19)"
   sodipodi:docname="mouth-G.svg"
   stroke-linejoin="round"
   stroke-linecap="round"
   fill="none"
   stroke="black"
   xml:space="preserve"
   enable-background="new 0 0 1545.922607 1545.922607"
   viewBox="-3e-06 2.5e-05 1012.6329 164.97637"
   height="759.47467"
   width="1012.6329"
   y="0px"
   x="0px"
   id="Contours"
   version="1.1">
  <metadata
     id="metadata201">
    <rdf:RDF>
      <cc:Work
         rdf:about="">
        <dc:format>image/svg+xml</dc:format>
        <dc:type
           rdf:resource="http://purl.org/dc/dcmitype/StillImage" />
      </cc:Work>
    </rdf:RDF>
  </metadata>
  <defs
     id="defs199" />
  <sodipodi:namedview
     inkscape:current-layer="Contours"
     inkscape:window-maximized="1"
     inkscape:window-y="23"
     inkscape:window-x="0"
     inkscape:cy="454.20246"
     inkscape:cx="-57.613343"
     inkscape:zoom="0.17594671"
     showgrid="false"
     id="namedview197"
     inkscape:window-height="755"
     inkscape:window-width="1280"
     inkscape:pageshadow="2"
     inkscape:pageopacity="0"
     guidetolerance="10"
     gridtolerance="10"
     objecttolerance="10"
     borderopacity="1"
     inkscape:document-rotation="0"
     bordercolor="#666666"
     pagecolor="#ffffff" />
  <g
     transform="matrix(0.49264708,0,0,0.49264708,98.68398,-10.952668)"
     id="g1139"
     style="opacity:1;stop-opacity:1">
    <path
       inkscape:connector-curvature="0"
       class="selected"
       fill="#000000"
       opacity="1.000000"
       stroke="none"
       d="m 12.477658,139.54339 c -1.404439,2.39067 -3.576714,4.86671 -6.343228,4.68182 -3.673294,-0.2455 -5.258779,-4.73939 -5.670129,-8.39782 C -2.163112,112.45972 6.629931,88.955188 20.026538,69.629505 33.423145,50.303822 51.199508,34.505175 68.79612,18.906766 75.217459,13.214608 81.696576,7.480493 89.138291,3.207894 c 3.326182,-1.9097 7.052442,-3.556193 10.865659,-3.144092 3.81321,0.412101 7.55242,3.582379 7.32813,7.411235 -0.17157,2.929094 -2.4451,5.246851 -4.60439,7.233431 C 87.470657,28.745172 70.675196,41.065996 55.802165,55.50895 40.929134,69.951903 27.78421,87.004917 22.165462,106.96076 c -3.083307,10.95084 -3.925238,22.77342 -9.687804,32.58263 z"
       id="path190" />
    <path
       inkscape:connector-curvature="0"
       class="selected"
       fill="#000000"
       opacity="1.000000"
       stroke="none"
       d="m 1542.3917,155.57739 c 2.7703,6.44307 5.2137,13.99129 2.0182,20.2344 -3.1955,6.24311 -14.6249,7.13651 -16.1232,0.28501 -5.7727,-26.39877 -20.8712,-49.97839 -38.9843,-70.03169 -18.1131,-20.05331 -39.3042,-37.031531 -59.7778,-54.668182 -1.7989,-1.549641 -3.7527,-3.462109 -3.6098,-5.83214 0.3053,-5.065248 8.0338,-4.496304 12.53,-2.143976 46.0543,24.094442 83.4161,64.406968 103.9469,112.156578 z"
       id="path192" />
    <path
       inkscape:connector-curvature="0"
       class="selected"
       fill="#000000"
       opacity="1.000000"
       stroke="none"
       d="m 594.74542,16.203189 c 47.96972,6.145575 95.58185,16.655422 143.93999,17.249084 28.32271,0.347701 56.56097,-2.716518 84.75047,-5.482243 114.05956,-11.190597 229.25022,-17.538371 343.14652,-4.79342 113.8963,12.744951 227.0277,45.313939 323.5201,107.15269 -62.8289,94.64633 -177.9688,139.31366 -288.5737,165.23565 C 1002.4351,342.2257 794.49869,346.26407 591.94009,318.23624 397.61487,291.34765 200.95596,231.63719 53.62919,102.09914 46.555091,95.879187 38.93097,86.97281 42.335078,78.18972 44.182002,73.424461 48.823261,70.419957 53.247501,67.86167 133.54567,21.429838 230.33916,16.330961 323.01122,12.381352 413.63245,8.519147 504.77725,4.677039 594.74542,16.203189 M 724.57398,47.593542 C 576.2395,18.124479 423.65076,14.893539 272.75405,24.979407 210.00705,29.173389 146.16316,35.968421 88.686093,61.486309 158.32391,131.55315 255.08105,167.37666 350.88249,191.47791 c 195.58237,49.20365 401.28282,57.80461 600.29002,25.09993 74.23239,-12.19928 149.99849,-9.39441 225.11919,-13.41158 75.1208,-4.01717 152.0283,-15.62563 217.0257,-53.50182 16.2158,-9.44948 33.4838,-24.86634 29.9673,-43.30214 C 1223.2343,11.96778 991.0022,14.046424 772.11424,45.961165 c -15.77206,2.299628 -31.90696,4.738191 -47.54026,1.632398 M 1442.687,117.33527 c -1.2736,21.02541 -18.8237,37.31449 -36.8101,48.27726 -44.0088,26.8236 -96.4271,35.59161 -147.5905,41.80418 -48.4534,5.88352 -97.1068,9.9508 -145.7465,14.01671 -57.9056,4.84045 -115.81117,9.6809 -173.71674,14.52135 -148.85982,12.44351 -299.6221,24.81679 -446.86694,-0.34361 C 442.82729,227.21628 394.51039,214.69984 346.2627,202.1984 245.43865,176.07391 138.56298,146.39463 68.774331,69.080185 55.694843,73.156484 65.103548,93.020412 76.090902,101.20376 176.50038,175.98832 291.1585,231.57145 412.06479,264.07471 c 46.29622,12.44582 93.44026,21.53079 140.78457,29.06441 220.86526,35.14498 449.47424,36.19579 665.80784,-20.51759 94.7537,-24.84034 191.6964,-64.31144 250.3855,-142.73905 -8.7852,-4.18241 -17.5704,-8.36481 -26.3557,-12.54721 z"
       id="path194" />
  </g>
</svg>

<?xml version="1.0" encoding="utf-8"?><!DOCTYPE svg PUBLIC "-//W3C//DTD SVG 1.1//EN" "http://www.w3.org/Graphics/SVG/1.1/DTD/svg11.dtd"><svg version="1.1" id="Contours" xmlns="http://www.w3.org/2000/svg" xmlns:xlink="http://www.w3.org/1999/xlink" x="0px" y="0px" width="1545.922607px" height="1545.922607px" viewBox="-0.000003 0.000025 1545.922607 335.811981" enable-background="new 0 0 1545.922607 1545.922607" xml:space="preserve" stroke="black" fill="none" stroke-linecap='round' stroke-linejoin='round'><path class="selected"  fill="#000000" opacity="1.000000" stroke="none" 
 	d="
M12.477658 139.543386 C11.073219 141.934063 8.900944 144.410100 6.134430 144.225206 C2.461136 143.979706 0.875651 139.485824 0.464301 135.827389 C-2.163112 112.459721 6.629931 88.955188 20.026538 69.629505 C33.423145 50.303822 51.199508 34.505175 68.796120 18.906766 C75.217459 13.214608 81.696576 7.480493 89.138291 3.207894 C92.464473 1.298194 96.190733 -0.348299 100.003948 0.063802 C103.817163 0.475903 107.556367 3.646181 107.332084 7.475037 C107.160507 10.404131 104.886975 12.721888 102.727686 14.708468 C87.470657 28.745172 70.675196 41.065996 55.802165 55.508950 C40.929134 69.951903 27.784210 87.004917 22.165462 106.960759 C19.082155 117.911596 18.240224 129.734185 12.477657 139.543386 z"/><path class="selected"  fill="#000000" opacity="1.000000" stroke="none" 
 	d="
M1542.391723 155.577388 C1545.162045 162.020459 1547.605428 169.568680 1544.409891 175.811788 C1541.214353 182.054896 1529.784974 182.948300 1528.286719 176.096797 C1522.513958 149.698035 1507.415474 126.118409 1489.302374 106.065105 C1471.189274 86.011800 1449.998183 69.033579 1429.524590 51.396928 C1427.725683 49.847287 1425.771918 47.934819 1425.914781 45.564788 C1426.220138 40.499540 1433.948559 41.068484 1438.444835 43.420812 C1484.499149 67.515254 1521.860857 107.827775 1542.391722 155.577387 z"/><path class="selected"  fill="#000000" opacity="1.000000" stroke="none" 
 	d="
M594.745417 16.203189 C642.715137 22.348764 690.327271 32.858611 738.685410 33.452273 C767.008122 33.799974 795.246384 30.735755 823.435880 27.970030 C937.495437 16.779433 1052.686050 10.431659 1166.582398 23.176610 C1280.478747 35.921561 1393.610096 68.490549 1490.102483 130.329301 C1427.273643 224.975627 1312.133716 269.642958 1201.528832 295.564951 C1002.435075 342.225700 794.498695 346.264067 591.940086 318.236237 C397.614873 291.347654 200.955959 231.637189 53.629190 102.099135 C46.555091 95.879187 38.930970 86.972810 42.335078 78.189720 C44.182002 73.424461 48.823261 70.419957 53.247501 67.861670 C133.545672 21.429838 230.339157 16.330961 323.011223 12.381352 C413.632450 8.519147 504.777250 4.677039 594.745417 16.203189 M724.573977 47.593542 C576.239504 18.124479 423.650764 14.893539 272.754055 24.979407 C210.007048 29.173389 146.163165 35.968421 88.686093 61.486309 C158.323914 131.553147 255.081047 167.376658 350.882495 191.477915 C546.464862 240.681564 752.165314 249.282518 951.172515 216.577845 C1025.404903 204.378557 1101.170953 207.183432 1176.291739 203.166259 C1251.412524 199.149085 1328.320026 187.540634 1393.317444 149.664444 C1409.533226 140.214964 1426.801181 124.798101 1423.284704 106.362303 C1223.234278 11.967780 991.002203 14.046424 772.114238 45.961165 C756.342177 48.260793 740.207281 50.699356 724.573976 47.593563 M1442.687048 117.335266 C1441.413434 138.360678 1423.863265 154.649762 1405.876943 165.612528 C1361.868121 192.436135 1309.449768 201.204140 1258.286439 207.416709 C1209.832957 213.300232 1161.179608 217.367515 1112.539869 221.433416 C1054.634300 226.273867 996.728732 231.114318 938.823164 235.954769 C789.963340 248.398283 639.201059 260.771558 491.956219 235.611165 C442.827290 227.216283 394.510391 214.699842 346.262702 202.198398 C245.438649 176.073908 138.562977 146.394629 68.774331 69.080185 C55.694843 73.156484 65.103548 93.020412 76.090902 101.203764 C176.500379 175.988323 291.158500 231.571447 412.064787 264.074708 C458.361010 276.520531 505.505053 285.605504 552.849360 293.139122 C773.714623 328.284098 1002.323573 329.334907 1218.657174 272.621532 C1313.410852 247.781189 1410.353567 208.310093 1469.042671 129.882476 C1460.257461 125.700070 1451.472254 121.517668 1442.687048 117.335266 z"/></svg>
